Newaita-dark/apps/16/preferences-system-privacy.svg

<svg height="16" viewBox="0 0 16 16" width="16" xmlns="http://www.w3.org/2000/svg" xmlns:xlink="http://www.w3.org/1999/xlink"><linearGradient id="a"><stop offset="0" stop-opacity=".313726"/><stop offset=".222222" stop-opacity=".27451"/><stop offset="1" stop-opacity="0"/></linearGradient><radialGradient id="b" cx="450.908936" cy="189.579361" gradientTransform="matrix(.00000009 -.0390662 -.0703192 -.00000005 22.261576 31.797665)" gradientUnits="userSpaceOnUse" r="21.166656" xlink:href="#a"/><radialGradient id="c" cx="450.908936" cy="189.579361" gradientTransform="matrix(-.00000009 .0390662 .0703192 .00000005 -6.385059 -3.763741)" gradientUnits="userSpaceOnUse" r="21.166656" xlink:href="#a"/><radialGradient id="d" cx="450.908936" cy="189.579361" gradientTransform="matrix(-.00000009 -.0390662 .0703192 -.00000005 -6.385059 31.797665)" gradientUnits="userSpaceOnUse" r="21.166656" xlink:href="#a"/><radialGradient id="e" cx="450.908936" cy="189.579361" gradientTransform="matrix(.00000009 .0390662 -.0703192 .00000005 22.261575 -3.763741)" gradientUnits="userSpaceOnUse" r="21.166656" xlink:href="#a"/><linearGradient id="f" gradientTransform="matrix(.00668003 0 0 .031253 6.232693 6.719392)" gradientUnits="userSpaceOnUse" x1="255.323059" x2="255.323044" y1="233.5" y2="254.666656"><stop offset="0" stop-opacity=".27451"/><stop offset="1" stop-opacity="0"/></linearGradient><linearGradient id="g" gradientUnits="userSpaceOnUse" x1="254" x2="254" y1="-168.666672" y2="233.5"><stop offset="0" stop-color="#616161"/><stop offset="1" stop-color="#424242"/></linearGradient><linearGradient id="h" gradientUnits="userSpaceOnUse" x1="7.9382592" x2="7.93825970441" y1="14.01697400048" y2="1.4480632201"><stop offset="0" stop-color="#ab47bc"/><stop offset="1" stop-color="#ba68c8"/></linearGradient><path d="m9.097656 14.015625h1.320313v-.660156h-1.320313zm0 0" fill="url(#b)"/><path d="m6.78125 14.015625h-1.324219v.664063h1.324219zm0 0" fill="url(#c)"/><path d="m6.78125 14.015625h-1.324219v-.660156h1.324219zm0 0" fill="url(#d)"/><path d="m9.097656 14.015625h1.320313v.664063h-1.320313zm0 0" fill="url(#e)"/><path d="m6.78125 13.851562h2.316406v.828126h-2.316406zm0 0" fill="url(#f)"/><path d="m253.975747-168.629428c111.114389 0 201.105795 89.991406 201.105795 201.105795 0 110.989401-89.991406 200.980807-201.105795 200.980807-110.989402 0-201.105796-89.991406-201.105796-200.980807 0-111.114389 90.116394-201.105795 201.105796-201.105795zm0 0" fill="url(#g)" stroke="#333" stroke-linecap="round" stroke-width="3" transform="matrix(.031253 0 0 .031253 0 6.719392)"/><path d="m7.9375 13.976562c-3.480469 0-6.285156-2.804687-6.285156-6.285156 0-.019531 0-.042968 0-.0625.035156 3.453125 2.824218 6.222656 6.285156 6.222656s6.253906-2.769531 6.285156-6.222656v.0625c0 3.480469-2.804687 6.285156-6.285156 6.285156zm0 0" fill-opacity=".196078"/><path d="m7.9375 1.488281c-3.480469 0-6.285156 2.804688-6.285156 6.285157v.0625c.035156-3.453126 2.824218-6.222657 6.285156-6.222657s6.253906 2.769531 6.285156 6.222657c0-.019532 0-.042969 0-.0625 0-3.480469-2.804687-6.285157-6.285156-6.285157zm0 0" fill="#fff" fill-opacity=".392157"/><path d="m7.9375 1.402344c-3.507812 0-6.332031 2.824218-6.332031 6.332031 0 3.503906 2.824219 6.328125 6.332031 6.328125s6.332031-2.824219 6.332031-6.328125c0-3.507813-2.824219-6.332031-6.332031-6.332031zm0 .09375c3.457031 0 6.238281 2.78125 6.238281 6.238281 0 3.453125-2.78125 6.234375-6.238281 6.234375s-6.238281-2.78125-6.238281-6.234375c0-3.457031 2.78125-6.238281 6.238281-6.238281zm0 0" fill="#212121"/><path d="m3.96875 5.746094c-.367188 0-.660156.296875-.660156.664062v1.324219.015625c.011718 1.09375 1.039062 1.96875 2.3125 1.96875.828125 0 1.988281-.394531 1.988281-1.324219 0-.183593.144531-.332031.328125-.332031s.332031.148438.332031.332031c0 .929688 1.15625 1.324219 1.984375 1.324219 1.273438 0 2.304688-.875 2.316406-1.96875 0-.003906 0-.011719 0-.015625v-1.324219c0-.367187-.296874-.664062-.664062-.664062h-1.652344c-.6875 0-1.304687.257812-1.730468.664062h-1.171876c-.421874-.40625-1.039062-.664062-1.730468-.664062zm1.652344.992187c.734375 0 1.324218.445313 1.324218.996094 0 .546875-.589843.992187-1.324218.992187-.730469 0-1.320313-.445312-1.320313-.992187 0-.550781.589844-.996094 1.320313-.996094zm4.632812 0c.734375 0 1.324219.445313 1.324219.996094 0 .546875-.589844.992187-1.324219.992187s-1.324218-.445312-1.324218-.992187c0-.550781.589843-.996094 1.324218-.996094zm0 0" fill="url(#h)"/><path d="m3.96875 5.746094c-.367188 0-.660156.296875-.660156.664062v.246094c0-.363281.292968-.660156.660156-.660156h1.652344c.691406 0 1.308594.253906 1.730468.660156h1.171876c.425781-.40625 1.042968-.660156 1.730468-.660156h1.652344c.367188 0 .664062.296875.664062.660156v-.246094c0-.367187-.296874-.664062-.664062-.664062h-1.652344c-.6875 0-1.304687.257812-1.730468.664062h-1.171876c-.421874-.40625-1.039062-.664062-1.730468-.664062zm.339844 2.109375c-.003906.042969-.007813.082031-.007813.125 0 .550781.589844.992187 1.320313.992187.734375 0 1.324218-.441406 1.324218-.992187 0-.042969-.003906-.082031-.007812-.125-.082031.492187-.636719.871093-1.316406.871093-.675782 0-1.230469-.378906-1.3125-.871093zm4.632812 0c-.007812.042969-.011718.082031-.011718.125 0 .550781.589843.992187 1.324218.992187s1.324219-.441406 1.324219-.992187c0-.042969-.003906-.082031-.011719-.125-.082031.492187-.636718.871093-1.3125.871093-.675781 0-1.230468-.378906-1.3125-.871093zm0 0" fill="#fff" fill-opacity=".392157"/><path d="m5.621094 6.738281c-.730469 0-1.320313.445313-1.320313.996094 0 .054687.003907.109375.015625.164063.105469-.472657.648438-.828126 1.304688-.828126.660156 0 1.203125.355469 1.308594.828126.011718-.054688.015624-.109376.015624-.164063 0-.550781-.589843-.996094-1.324218-.996094zm4.632812 0c-.734375 0-1.324218.445313-1.324218.996094 0 .054687.007812.109375.019531.164063.105469-.472657.648437-.828126 1.304687-.828126s1.199219.355469 1.304688.828126c.011718-.054688.019531-.109376.019531-.164063 0-.550781-.589844-.996094-1.324219-.996094zm-6.945312.996094v.328125.019531c.011718 1.089844 1.039062 1.964844 2.3125 1.964844.828125 0 1.988281-.390625 1.988281-1.320313 0-.183593.144531-.332031.328125-.332031s.332031.148438.332031.332031c0 .929688 1.15625 1.320313 1.984375 1.320313 1.273438 0 2.304688-.875 2.316406-1.964844 0-.007812 0-.011719 0-.019531v-.328125.015625c-.011718 1.09375-1.042968 1.96875-2.316406 1.96875-.828125 0-1.984375-.394531-1.984375-1.324219 0-.183593-.148437-.332031-.332031-.332031s-.328125.148438-.328125.332031c0 .929688-1.160156 1.324219-1.988281 1.324219-1.273438 0-2.300782-.875-2.3125-1.96875 0-.003906 0-.011719 0-.015625zm0 0" fill-opacity=".235294"/><path d="m126.987873-31.142558c-11.748878 0-21.122983 9.499093-21.122983 21.247971v42.370954.499952c.374965 34.996658 33.246825 62.993985 73.992934 62.993985 26.49747 0 63.618925-12.623795 63.618925-42.370954 0-5.874439 4.624559-10.623985 10.498998-10.623985s10.623985 4.749546 10.623985 10.623985c0 29.747159 36.996467 42.370954 63.493937 42.370954 40.746109 0 73.742958-27.997327 74.117922-62.993985 0-.124988 0-.374964 0-.499952v-42.370954c0-11.748878-9.499093-21.247971-21.247971-21.247971h-52.869951c-21.9979 0-41.746014 8.249213-55.369713 21.247971h-37.496419c-13.498711-12.998758-33.246825-21.247971-55.369713-21.247971zm52.869951 31.746969c23.497757 0 42.370954 14.248639 42.370954 31.871956 0 17.498329-18.873197 31.746969-42.370954 31.746969-23.372768 0-42.245965-14.24864-42.245965-31.746969 0-17.623317 18.873197-31.871956 42.245965-31.871956zm148.235845 0c23.497756 0 42.370953 14.248639 42.370953 31.871956 0 17.498329-18.873197 31.746969-42.370953 31.746969s-42.370954-14.24864-42.370954-31.746969c0-17.623317 18.873198-31.871956 42.370954-31.871956zm0 0" fill="none" stroke="#212121" stroke-linecap="round" stroke-linejoin="round" stroke-width="3" transform="matrix(.031253 0 0 .031253 0 6.719392)"/></svg>

<?xml version="1.0" encoding="UTF-8"?>
<svg xmlns="http://www.w3.org/2000/svg" xmlns:xlink="http://www.w3.org/1999/xlink" width="16px" height="16px" viewBox="0 0 16 16" version="1.1">
<defs>
<radialGradient id="radial0" gradientUnits="userSpaceOnUse" cx="450.908936" cy="189.579361" fx="450.908936" fy="189.579361" r="21.166656" gradientTransform="matrix(0.0000000870852,-0.0390662,-0.0703192,-0.0000000507693,22.261576,31.797665)">
<stop offset="0" style="stop-color:rgb(0%,0%,0%);stop-opacity:0.313726;"/>
<stop offset="0.222222" style="stop-color:rgb(0%,0%,0%);stop-opacity:0.27451;"/>
<stop offset="1" style="stop-color:rgb(0%,0%,0%);stop-opacity:0;"/>
</radialGradient>
<radialGradient id="radial1" gradientUnits="userSpaceOnUse" cx="450.908936" cy="189.579361" fx="450.908936" fy="189.579361" r="21.166656" gradientTransform="matrix(-0.0000000870852,0.0390662,0.0703192,0.0000000507693,-6.385059,-3.763741)">
<stop offset="0" style="stop-color:rgb(0%,0%,0%);stop-opacity:0.313726;"/>
<stop offset="0.222222" style="stop-color:rgb(0%,0%,0%);stop-opacity:0.27451;"/>
<stop offset="1" style="stop-color:rgb(0%,0%,0%);stop-opacity:0;"/>
</radialGradient>
<radialGradient id="radial2" gradientUnits="userSpaceOnUse" cx="450.908936" cy="189.579361" fx="450.908936" fy="189.579361" r="21.166656" gradientTransform="matrix(-0.0000000870852,-0.0390662,0.0703192,-0.0000000507693,-6.385059,31.797665)">
<stop offset="0" style="stop-color:rgb(0%,0%,0%);stop-opacity:0.313726;"/>
<stop offset="0.222222" style="stop-color:rgb(0%,0%,0%);stop-opacity:0.27451;"/>
<stop offset="1" style="stop-color:rgb(0%,0%,0%);stop-opacity:0;"/>
</radialGradient>
<radialGradient id="radial3" gradientUnits="userSpaceOnUse" cx="450.908936" cy="189.579361" fx="450.908936" fy="189.579361" r="21.166656" gradientTransform="matrix(0.0000000870852,0.0390662,-0.0703192,0.0000000507693,22.261575,-3.763741)">
<stop offset="0" style="stop-color:rgb(0%,0%,0%);stop-opacity:0.313726;"/>
<stop offset="0.222222" style="stop-color:rgb(0%,0%,0%);stop-opacity:0.27451;"/>
<stop offset="1" style="stop-color:rgb(0%,0%,0%);stop-opacity:0;"/>
</radialGradient>
<linearGradient id="linear0" gradientUnits="userSpaceOnUse" x1="255.323059" y1="233.5" x2="255.323044" y2="254.666656" gradientTransform="matrix(0.00668003,0,0,0.031253,6.232693,6.719392)">
<stop offset="0" style="stop-color:rgb(0%,0%,0%);stop-opacity:0.27451;"/>
<stop offset="1" style="stop-color:rgb(0%,0%,0%);stop-opacity:0;"/>
</linearGradient>
<linearGradient id="linear1" gradientUnits="userSpaceOnUse" x1="254" y1="-168.666672" x2="254" y2="233.5" >
<stop offset="0" style="stop-color:rgb(38.039216%,38.039216%,38.039216%);stop-opacity:1;"/>
<stop offset="1" style="stop-color:rgb(25.882354%,25.882354%,25.882354%);stop-opacity:1;"/>
</linearGradient>
<linearGradient id="linear2" gradientUnits="userSpaceOnUse" x1="960" y1="1695.118164" x2="960.000061" y2="175.118118" gradientTransform="matrix(0.00826902,0,0,0.00826902,0.0000000114594,0.00000763012)">
<stop offset="0" style="stop-color:rgb(67.058825%,27.843139%,73.725492%);stop-opacity:1;"/>
<stop offset="1" style="stop-color:rgb(72.941178%,40.784314%,78.431374%);stop-opacity:1;"/>
</linearGradient>
</defs>
<g id="surface1">
<path style=" stroke:none;fill-rule:nonzero;fill:url(#radial0);" d="M 9.097656 14.015625 L 10.417969 14.015625 L 10.417969 13.355469 L 9.097656 13.355469 Z M 9.097656 14.015625 "/>
<path style=" stroke:none;fill-rule:nonzero;fill:url(#radial1);" d="M 6.78125 14.015625 L 5.457031 14.015625 L 5.457031 14.679688 L 6.78125 14.679688 Z M 6.78125 14.015625 "/>
<path style=" stroke:none;fill-rule:nonzero;fill:url(#radial2);" d="M 6.78125 14.015625 L 5.457031 14.015625 L 5.457031 13.355469 L 6.78125 13.355469 Z M 6.78125 14.015625 "/>
<path style=" stroke:none;fill-rule:nonzero;fill:url(#radial3);" d="M 9.097656 14.015625 L 10.417969 14.015625 L 10.417969 14.679688 L 9.097656 14.679688 Z M 9.097656 14.015625 "/>
<path style=" stroke:none;fill-rule:nonzero;fill:url(#linear0);" d="M 6.78125 13.851562 L 9.097656 13.851562 L 9.097656 14.679688 L 6.78125 14.679688 Z M 6.78125 13.851562 "/>
<path style="fill-rule:nonzero;fill:url(#linear1);stroke-width:3;stroke-linecap:round;stroke-linejoin:miter;stroke:rgb(20%,20%,20%);stroke-opacity:1;stroke-miterlimit:4;" d="M 253.975747 -168.629428 C 365.090136 -168.629428 455.081542 -78.638022 455.081542 32.476367 C 455.081542 143.465768 365.090136 233.457174 253.975747 233.457174 C 142.986345 233.457174 52.869951 143.465768 52.869951 32.476367 C 52.869951 -78.638022 142.986345 -168.629428 253.975747 -168.629428 Z M 253.975747 -168.629428 " transform="matrix(0.031253,0,0,0.031253,0,6.719392)"/>
<path style=" stroke:none;fill-rule:nonzero;fill:rgb(0%,0%,0%);fill-opacity:0.196078;" d="M 7.9375 13.976562 C 4.457031 13.976562 1.652344 11.171875 1.652344 7.691406 C 1.652344 7.671875 1.652344 7.648438 1.652344 7.628906 C 1.6875 11.082031 4.476562 13.851562 7.9375 13.851562 C 11.398438 13.851562 14.191406 11.082031 14.222656 7.628906 C 14.222656 7.648438 14.222656 7.671875 14.222656 7.691406 C 14.222656 11.171875 11.417969 13.976562 7.9375 13.976562 Z M 7.9375 13.976562 "/>
<path style=" stroke:none;fill-rule:nonzero;fill:rgb(100%,100%,100%);fill-opacity:0.392157;" d="M 7.9375 1.488281 C 4.457031 1.488281 1.652344 4.292969 1.652344 7.773438 C 1.652344 7.792969 1.652344 7.816406 1.652344 7.835938 C 1.6875 4.382812 4.476562 1.613281 7.9375 1.613281 C 11.398438 1.613281 14.191406 4.382812 14.222656 7.835938 C 14.222656 7.816406 14.222656 7.792969 14.222656 7.773438 C 14.222656 4.292969 11.417969 1.488281 7.9375 1.488281 Z M 7.9375 1.488281 "/>
<path style=" stroke:none;fill-rule:nonzero;fill:rgb(12.941177%,12.941177%,12.941177%);fill-opacity:1;" d="M 7.9375 1.402344 C 4.429688 1.402344 1.605469 4.226562 1.605469 7.734375 C 1.605469 11.238281 4.429688 14.0625 7.9375 14.0625 C 11.445312 14.0625 14.269531 11.238281 14.269531 7.734375 C 14.269531 4.226562 11.445312 1.402344 7.9375 1.402344 Z M 7.9375 1.496094 C 11.394531 1.496094 14.175781 4.277344 14.175781 7.734375 C 14.175781 11.1875 11.394531 13.96875 7.9375 13.96875 C 4.480469 13.96875 1.699219 11.1875 1.699219 7.734375 C 1.699219 4.277344 4.480469 1.496094 7.9375 1.496094 Z M 7.9375 1.496094 "/>
<path style=" stroke:none;fill-rule:nonzero;fill:url(#linear2);" d="M 3.96875 5.746094 C 3.601562 5.746094 3.308594 6.042969 3.308594 6.410156 L 3.308594 7.734375 C 3.308594 7.738281 3.308594 7.746094 3.308594 7.75 C 3.320312 8.84375 4.347656 9.71875 5.621094 9.71875 C 6.449219 9.71875 7.609375 9.324219 7.609375 8.394531 C 7.609375 8.210938 7.753906 8.0625 7.9375 8.0625 C 8.121094 8.0625 8.269531 8.210938 8.269531 8.394531 C 8.269531 9.324219 9.425781 9.71875 10.253906 9.71875 C 11.527344 9.71875 12.558594 8.84375 12.570312 7.75 C 12.570312 7.746094 12.570312 7.738281 12.570312 7.734375 L 12.570312 6.410156 C 12.570312 6.042969 12.273438 5.746094 11.90625 5.746094 L 10.253906 5.746094 C 9.566406 5.746094 8.949219 6.003906 8.523438 6.410156 L 7.351562 6.410156 C 6.929688 6.003906 6.3125 5.746094 5.621094 5.746094 Z M 5.621094 6.738281 C 6.355469 6.738281 6.945312 7.183594 6.945312 7.734375 C 6.945312 8.28125 6.355469 8.726562 5.621094 8.726562 C 4.890625 8.726562 4.300781 8.28125 4.300781 7.734375 C 4.300781 7.183594 4.890625 6.738281 5.621094 6.738281 Z M 10.253906 6.738281 C 10.988281 6.738281 11.578125 7.183594 11.578125 7.734375 C 11.578125 8.28125 10.988281 8.726562 10.253906 8.726562 C 9.519531 8.726562 8.929688 8.28125 8.929688 7.734375 C 8.929688 7.183594 9.519531 6.738281 10.253906 6.738281 Z M 10.253906 6.738281 "/>
<path style=" stroke:none;fill-rule:nonzero;fill:rgb(100%,100%,100%);fill-opacity:0.392157;" d="M 3.96875 5.746094 C 3.601562 5.746094 3.308594 6.042969 3.308594 6.410156 L 3.308594 6.65625 C 3.308594 6.292969 3.601562 5.996094 3.96875 5.996094 L 5.621094 5.996094 C 6.3125 5.996094 6.929688 6.25 7.351562 6.65625 L 8.523438 6.65625 C 8.949219 6.25 9.566406 5.996094 10.253906 5.996094 L 11.90625 5.996094 C 12.273438 5.996094 12.570312 6.292969 12.570312 6.65625 L 12.570312 6.410156 C 12.570312 6.042969 12.273438 5.746094 11.90625 5.746094 L 10.253906 5.746094 C 9.566406 5.746094 8.949219 6.003906 8.523438 6.410156 L 7.351562 6.410156 C 6.929688 6.003906 6.3125 5.746094 5.621094 5.746094 Z M 4.308594 7.855469 C 4.304688 7.898438 4.300781 7.9375 4.300781 7.980469 C 4.300781 8.53125 4.890625 8.972656 5.621094 8.972656 C 6.355469 8.972656 6.945312 8.53125 6.945312 7.980469 C 6.945312 7.9375 6.941406 7.898438 6.9375 7.855469 C 6.855469 8.347656 6.300781 8.726562 5.621094 8.726562 C 4.945312 8.726562 4.390625 8.347656 4.308594 7.855469 Z M 8.941406 7.855469 C 8.933594 7.898438 8.929688 7.9375 8.929688 7.980469 C 8.929688 8.53125 9.519531 8.972656 10.253906 8.972656 C 10.988281 8.972656 11.578125 8.53125 11.578125 7.980469 C 11.578125 7.9375 11.574219 7.898438 11.566406 7.855469 C 11.484375 8.347656 10.929688 8.726562 10.253906 8.726562 C 9.578125 8.726562 9.023438 8.347656 8.941406 7.855469 Z M 8.941406 7.855469 "/>
<path style=" stroke:none;fill-rule:nonzero;fill:rgb(0%,0%,0%);fill-opacity:0.235294;" d="M 5.621094 6.738281 C 4.890625 6.738281 4.300781 7.183594 4.300781 7.734375 C 4.300781 7.789062 4.304688 7.84375 4.316406 7.898438 C 4.421875 7.425781 4.964844 7.070312 5.621094 7.070312 C 6.28125 7.070312 6.824219 7.425781 6.929688 7.898438 C 6.941406 7.84375 6.945312 7.789062 6.945312 7.734375 C 6.945312 7.183594 6.355469 6.738281 5.621094 6.738281 Z M 10.253906 6.738281 C 9.519531 6.738281 8.929688 7.183594 8.929688 7.734375 C 8.929688 7.789062 8.9375 7.84375 8.949219 7.898438 C 9.054688 7.425781 9.597656 7.070312 10.253906 7.070312 C 10.910156 7.070312 11.453125 7.425781 11.558594 7.898438 C 11.570312 7.84375 11.578125 7.789062 11.578125 7.734375 C 11.578125 7.183594 10.988281 6.738281 10.253906 6.738281 Z M 3.308594 7.734375 L 3.308594 8.0625 C 3.308594 8.070312 3.308594 8.074219 3.308594 8.082031 C 3.320312 9.171875 4.347656 10.046875 5.621094 10.046875 C 6.449219 10.046875 7.609375 9.65625 7.609375 8.726562 C 7.609375 8.542969 7.753906 8.394531 7.9375 8.394531 C 8.121094 8.394531 8.269531 8.542969 8.269531 8.726562 C 8.269531 9.65625 9.425781 10.046875 10.253906 10.046875 C 11.527344 10.046875 12.558594 9.171875 12.570312 8.082031 C 12.570312 8.074219 12.570312 8.070312 12.570312 8.0625 L 12.570312 7.734375 C 12.570312 7.738281 12.570312 7.746094 12.570312 7.75 C 12.558594 8.84375 11.527344 9.71875 10.253906 9.71875 C 9.425781 9.71875 8.269531 9.324219 8.269531 8.394531 C 8.269531 8.210938 8.121094 8.0625 7.9375 8.0625 C 7.753906 8.0625 7.609375 8.210938 7.609375 8.394531 C 7.609375 9.324219 6.449219 9.71875 5.621094 9.71875 C 4.347656 9.71875 3.320312 8.84375 3.308594 7.75 C 3.308594 7.746094 3.308594 7.738281 3.308594 7.734375 Z M 3.308594 7.734375 "/>
<path style="fill:none;stroke-width:3;stroke-linecap:round;stroke-linejoin:round;stroke:rgb(12.941177%,12.941177%,12.941177%);stroke-opacity:1;stroke-miterlimit:4;" d="M 126.987873 -31.142558 C 115.238995 -31.142558 105.86489 -21.643465 105.86489 -9.894587 L 105.86489 32.476367 C 105.86489 32.601355 105.86489 32.851331 105.86489 32.976319 C 106.239855 67.972977 139.111715 95.970304 179.857824 95.970304 C 206.355294 95.970304 243.476749 83.346509 243.476749 53.59935 C 243.476749 47.724911 248.101308 42.975365 253.975747 42.975365 C 259.850186 42.975365 264.599732 47.724911 264.599732 53.59935 C 264.599732 83.346509 301.596199 95.970304 328.093669 95.970304 C 368.839778 95.970304 401.836627 67.972977 402.211591 32.976319 C 402.211591 32.851331 402.211591 32.601355 402.211591 32.476367 L 402.211591 -9.894587 C 402.211591 -21.643465 392.712498 -31.142558 380.96362 -31.142558 L 328.093669 -31.142558 C 306.095769 -31.142558 286.347655 -22.893345 272.723956 -9.894587 L 235.227537 -9.894587 C 221.728826 -22.893345 201.980712 -31.142558 179.857824 -31.142558 Z M 179.857824 0.604411 C 203.355581 0.604411 222.228778 14.85305 222.228778 32.476367 C 222.228778 49.974696 203.355581 64.223336 179.857824 64.223336 C 156.485056 64.223336 137.611859 49.974696 137.611859 32.476367 C 137.611859 14.85305 156.485056 0.604411 179.857824 0.604411 Z M 328.093669 0.604411 C 351.591425 0.604411 370.464622 14.85305 370.464622 32.476367 C 370.464622 49.974696 351.591425 64.223336 328.093669 64.223336 C 304.595913 64.223336 285.722715 49.974696 285.722715 32.476367 C 285.722715 14.85305 304.595913 0.604411 328.093669 0.604411 Z M 328.093669 0.604411 " transform="matrix(0.031253,0,0,0.031253,0,6.719392)"/>
</g>
</svg>
